src/assets/icons/calendar-edit.svg

<?xml version="1.0" encoding="UTF-8" standalone="no"?>
<!-- Uploaded to: SVG Repo, www.svgrepo.com, Generator: SVG Repo Mixer Tools -->

<svg
   width="800px"
   height="800px"
   viewBox="0 0 24 24"
   fill="none"
   version="1.1"
   id="svg3"
   sodipodi:docname="calendar-remove-svgrepo-com - Copy.svg"
   inkscape:version="1.3.2 (091e20e, 2023-11-25, custom)"
   xmlns:inkscape="http://www.inkscape.org/namespaces/inkscape"
   xmlns:sodipodi="http://sodipodi.sourceforge.net/DTD/sodipodi-0.dtd"
   xmlns="http://www.w3.org/2000/svg"
   xmlns:svg="http://www.w3.org/2000/svg">
  <defs
     id="defs3" />
  <sodipodi:namedview
     id="namedview3"
     pagecolor="#ffffff"
     bordercolor="#000000"
     borderopacity="0.25"
     inkscape:showpageshadow="2"
     inkscape:pageopacity="0.0"
     inkscape:pagecheckerboard="0"
     inkscape:deskcolor="#d1d1d1"
     inkscape:zoom="0.97125"
     inkscape:cx="399.4852"
     inkscape:cy="400"
     inkscape:window-width="1920"
     inkscape:window-height="991"
     inkscape:window-x="-9"
     inkscape:window-y="-9"
     inkscape:window-maximized="1"
     inkscape:current-layer="svg3" />
  <path
     fill-rule="evenodd"
     clip-rule="evenodd"
     d="M7 1C6.44772 1 6 1.44772 6 2V3H5C3.34315 3 2 4.34315 2 6V20C2 21.6569 3.34315 23 5 23H13.101C12.5151 22.4259 12.0297 21.7496 11.6736 21H5C4.44772 21 4 20.5523 4 20V11H20V11.2899C20.7224 11.5049 21.396 11.8334 22 12.2547V6C22 4.34315 20.6569 3 19 3H18V2C18 1.44772 17.5523 1 17 1C16.4477 1 16 1.44772 16 2V3H8V2C8 1.44772 7.55228 1 7 1ZM16 6V5H8V6C8 6.55228 7.55228 7 7 7C6.44772 7 6 6.55228 6 6V5H5C4.44772 5 4 5.44772 4 6V9H20V6C20 5.44772 19.5523 5 19 5H18V6C18 6.55228 17.5523 7 17 7C16.4477 7 16 6.55228 16 6Z"
     fill="#0F0F0F"
     id="path1" />
  <path
     fill-rule="evenodd"
     clip-rule="evenodd"
     d="M24 18C24 21.3137 21.3137 24 18 24C14.6863 24 12 21.3137 12 18C12 14.6863 14.6863 12 18 12C21.3137 12 24 14.6863 24 18ZM13.9819 18C13.9819 20.2191 15.7809 22.0181 18 22.0181C20.2191 22.0181 22.0181 20.2191 22.0181 18C22.0181 15.7809 20.2191 13.9819 18 13.9819C15.7809 13.9819 13.9819 15.7809 13.9819 18Z"
     fill="#0F0F0F"
     id="path3" />
  <path
     d="m 16.214651,19.815885 1.021277,-0.203253 c 0.08901,-0.01772 0.133546,-0.0266 0.175058,-0.04285 0.03687,-0.01439 0.07194,-0.03311 0.104383,-0.05572 0.03662,-0.02549 0.06873,-0.05752 0.133057,-0.121675 l 2.098308,-2.094339 c 0.278734,-0.278248 0.279181,-0.729724 9.53e-4,-1.008479 -0.278223,-0.278751 -0.729724,-0.279171 -1.008479,-9.53e-4 l -2.098355,2.094318 c -0.06427,0.06417 -0.09643,0.09618 -0.121958,0.132779 -0.02266,0.03241 -0.04145,0.06743 -0.05593,0.104274 -0.01632,0.04149 -0.02526,0.086 -0.04316,0.174978 z"
     stroke="#000000"
     stroke-width="1.00848"
     stroke-linecap="round"
     stroke-linejoin="round"
     id="path1-0"
     sodipodi:nodetypes="csccssccccccc" />
</svg>

<svg xmlns="http://www.w3.org/2000/svg" width="800" height="800" fill="none" viewBox="0 0 24 24">
   <path fill="#0F0F0F" fill-rule="evenodd"
      d="M7 1a1 1 0 0 0-1 1v1H5a3 3 0 0 0-3 3v14a3 3 0 0 0 3 3h8.101a7.018 7.018 0 0 1-1.427-2H5a1 1 0 0 1-1-1v-9h16v.29a6.972 6.972 0 0 1 2 .965V6a3 3 0 0 0-3-3h-1V2a1 1 0 1 0-2 0v1H8V2a1 1 0 0 0-1-1Zm9 5V5H8v1a1 1 0 0 1-2 0V5H5a1 1 0 0 0-1 1v3h16V6a1 1 0 0 0-1-1h-1v1a1 1 0 1 1-2 0Z"
      clip-rule="evenodd" />
   <path fill="#0F0F0F" fill-rule="evenodd"
      d="M24 18a6 6 0 1 1-12 0 6 6 0 0 1 12 0Zm-10.018 0a4.018 4.018 0 1 0 8.036 0 4.018 4.018 0 0 0-8.036 0Z"
      clip-rule="evenodd" />
   <path stroke="#000" stroke-linecap="round" stroke-linejoin="round" stroke-width="1.008"
      d="m16.215 19.816 1.02-.203c.09-.018.134-.027.176-.043a.502.502 0 0 0 .104-.056c.037-.025.07-.057.133-.122l2.099-2.094a.713.713 0 0 0-1.008-1.01l-2.098 2.095c-.064.064-.097.096-.122.133a.503.503 0 0 0-.056.104c-.016.041-.025.086-.043.175z" />
</svg>
